**harm	**harte	**timestamp	**phrase	**leadinstrument	**kern
*M4/4	*M4/4	*	*	*	*
*a:	*a:	*	*	*	*a:
1r;	N	0	.	r	1r;
=1	=1	=1	=1	=1	=1
*>A_intro	*>A_intro	*>A_intro	*>A_intro	*>A_intro	*>A_intro
1i	A:min	0.255	newline	r	1A 1cc 1ee
=2	=2	=2	=2	=2	=2
1i	A:min	2.851	.	r	1A 1cc 1ee
=3	=3	=3	=3	=3	=3
1i	A:min	5.446	.	r	1A 1cc 1ee
=4	=4	=4	=4	=4	=4
1i	A:min	8.042	.	r	1A 1cc 1ee
=5	=5	=5	=5	=5	=5
*>B_verse	*>B_verse	*>B_verse	*>B_verse	*>B_verse	*>B_verse
1i	A:min	10.637	newline	voice	1A 1cc 1ee
=6	=6	=6	=6	=6	=6
1i	A:min	13.169	.	voice	1A 1cc 1ee
=7	=7	=7	=7	=7	=7
1i	A:min	15.7	.	voice	1A 1cc 1ee
=8	=8	=8	=8	=8	=8
1i	A:min	18.231	.	voice	1A 1cc 1ee
=9	=9	=9	=9	=9	=9
1i	A:min	20.762	newline	voice	1A 1cc 1ee
=10	=10	=10	=10	=10	=10
1i	A:min	23.281	.	voice	1A 1cc 1ee
=11	=11	=11	=11	=11	=11
1i	A:min	25.8	.	voice	1A 1cc 1ee
=12	=12	=12	=12	=12	=12
1i	A:min	28.319	.	voice	1A 1cc 1ee
=13	=13	=13	=13	=13	=13
1IV7	D:7	30.837	newline	voice	1D 1f# 1a 1cc
=14	=14	=14	=14	=14	=14
1IV7	D:7	33.401	.	voice	1D 1f# 1a 1cc
=15	=15	=15	=15	=15	=15
1i	A:min	35.965	.	voice	1A 1cc 1ee
=16	=16	=16	=16	=16	=16
1i	A:min	38.528	.	voice	1A 1cc 1ee
=17	=17	=17	=17	=17	=17
1V7	E:7	41.092	newline	voice	1E 1g# 1b 1dd
=18	=18	=18	=18	=18	=18
1IV7	D:7	43.62	.	voice	1D 1f# 1a 1cc
=19	=19	=19	=19	=19	=19
1i	A:min	46.148	.	voice	1A 1cc 1ee
=20	=20	=20	=20	=20	=20
1i	A:min	48.677	.	voice	1A 1cc 1ee
=21	=21	=21	=21	=21	=21
*>B_verse	*>B_verse	*>B_verse	*>B_verse	*>B_verse	*>B_verse
1i	A:min	51.205	newline	voice	1A 1cc 1ee
=22	=22	=22	=22	=22	=22
1i	A:min	53.727	.	voice	1A 1cc 1ee
=23	=23	=23	=23	=23	=23
1i	A:min	56.25	.	voice	1A 1cc 1ee
=24	=24	=24	=24	=24	=24
1i	A:min	58.772	.	voice	1A 1cc 1ee
=25	=25	=25	=25	=25	=25
1i	A:min	61.294	newline	voice	1A 1cc 1ee
=26	=26	=26	=26	=26	=26
1i	A:min	63.794	.	voice	1A 1cc 1ee
=27	=27	=27	=27	=27	=27
1i	A:min	66.294	.	voice	1A 1cc 1ee
=28	=28	=28	=28	=28	=28
1i	A:min	68.793	.	voice	1A 1cc 1ee
=29	=29	=29	=29	=29	=29
1IV7	D:7	71.293	newline	voice	1D 1f# 1a 1cc
=30	=30	=30	=30	=30	=30
1IV7	D:7	73.83	.	voice	1D 1f# 1a 1cc
=31	=31	=31	=31	=31	=31
1i	A:min	76.366	.	voice	1A 1cc 1ee
=32	=32	=32	=32	=32	=32
1i	A:min	78.903	.	voice	1A 1cc 1ee
=33	=33	=33	=33	=33	=33
1V7	E:7	81.44	newline	voice	1E 1g# 1b 1dd
=34	=34	=34	=34	=34	=34
1IV7	D:7	83.995	.	voice	1D 1f# 1a 1cc
=35	=35	=35	=35	=35	=35
1i	A:min	86.55	.	voice	1A 1cc 1ee
=36	=36	=36	=36	=36	=36
1i	A:min	89.105	.	voice	1A 1cc 1ee
=37	=37	=37	=37	=37	=37
*>B_verse	*>B_verse	*>B_verse	*>B_verse	*>B_verse	*>B_verse
1i	A:min	91.66	newline	voice	1A 1cc 1ee
=38	=38	=38	=38	=38	=38
1i	A:min	94.187	.	voice	1A 1cc 1ee
=39	=39	=39	=39	=39	=39
1i	A:min	96.715	.	voice	1A 1cc 1ee
=40	=40	=40	=40	=40	=40
1i	A:min	99.242	.	voice	1A 1cc 1ee
=41	=41	=41	=41	=41	=41
1i	A:min	101.77	newline	voice	1A 1cc 1ee
=42	=42	=42	=42	=42	=42
1i	A:min	104.274	.	voice	1A 1cc 1ee
=43	=43	=43	=43	=43	=43
1i	A:min	106.779	.	voice	1A 1cc 1ee
=44	=44	=44	=44	=44	=44
1i	A:min	109.283	.	voice	1A 1cc 1ee
=45	=45	=45	=45	=45	=45
1IV7	D:7	111.787	newline	voice	1D 1f# 1a 1cc
=46	=46	=46	=46	=46	=46
1IV7	D:7	114.349	.	voice	1D 1f# 1a 1cc
=47	=47	=47	=47	=47	=47
1i	A:min	116.91	.	voice	1A 1cc 1ee
=48	=48	=48	=48	=48	=48
1i	A:min	119.472	.	voice	1A 1cc 1ee
=49	=49	=49	=49	=49	=49
1V7	E:7	122.034	newline	voice	1E 1g# 1b 1dd
=50	=50	=50	=50	=50	=50
1IV7	D:7	124.571	.	voice	1D 1f# 1a 1cc
=51	=51	=51	=51	=51	=51
1i	A:min	127.108	.	voice	1A 1cc 1ee
=52	=52	=52	=52	=52	=52
1i	A:min	129.645	.	voice	1A 1cc 1ee
=53	=53	=53	=53	=53	=53
*>B_verse	*>B_verse	*>B_verse	*>B_verse	*>B_verse	*>B_verse
1i	A:min	132.182	newline	voice	1A 1cc 1ee
=54	=54	=54	=54	=54	=54
1i	A:min	134.706	.	voice	1A 1cc 1ee
=55	=55	=55	=55	=55	=55
1i	A:min	137.23	.	voice	1A 1cc 1ee
=56	=56	=56	=56	=56	=56
1i	A:min	139.753	.	voice	1A 1cc 1ee
=57	=57	=57	=57	=57	=57
1i	A:min	142.277	newline	voice	1A 1cc 1ee
=58	=58	=58	=58	=58	=58
1i	A:min	144.798	.	voice	1A 1cc 1ee
=59	=59	=59	=59	=59	=59
1i	A:min	147.32	.	voice	1A 1cc 1ee
=60	=60	=60	=60	=60	=60
1i	A:min	149.841	.	voice	1A 1cc 1ee
=61	=61	=61	=61	=61	=61
1IV7	D:7	152.362	newline	voice	1D 1f# 1a 1cc
=62	=62	=62	=62	=62	=62
1IV7	D:7	154.918	.	voice	1D 1f# 1a 1cc
=63	=63	=63	=63	=63	=63
1i	A:min	157.475	.	voice	1A 1cc 1ee
=64	=64	=64	=64	=64	=64
1i	A:min	160.031	.	voice	1A 1cc 1ee
=65	=65	=65	=65	=65	=65
1V7	E:7	162.588	newline	voice	1E 1g# 1b 1dd
=66	=66	=66	=66	=66	=66
1IV7	D:7	165.134	.	voice	1D 1f# 1a 1cc
=67	=67	=67	=67	=67	=67
1i	A:min	167.681	.	voice	1A 1cc 1ee
=68	=68	=68	=68	=68	=68
1i	A:min	170.228	.	voice	1A 1cc 1ee
=69	=69	=69	=69	=69	=69
*>B_verse	*>B_verse	*>B_verse	*>B_verse	*>B_verse	*>B_verse
1i	A:min	172.775	newline	voice	1A 1cc 1ee
=70	=70	=70	=70	=70	=70
1i	A:min	175.301	.	voice	1A 1cc 1ee
=71	=71	=71	=71	=71	=71
1i	A:min	177.826	.	voice	1A 1cc 1ee
=72	=72	=72	=72	=72	=72
1i	A:min	180.352	.	voice	1A 1cc 1ee
=73	=73	=73	=73	=73	=73
1i	A:min	182.877	newline	voice	1A 1cc 1ee
=74	=74	=74	=74	=74	=74
1i	A:min	185.37	.	voice	1A 1cc 1ee
=75	=75	=75	=75	=75	=75
1i	A:min	187.863	.	voice	1A 1cc 1ee
=76	=76	=76	=76	=76	=76
1i	A:min	190.355	.	voice	1A 1cc 1ee
=77	=77	=77	=77	=77	=77
1IV7	D:7	192.848	newline	voice	1D 1f# 1a 1cc
=78	=78	=78	=78	=78	=78
1IV7	D:7	195.349	.	voice	1D 1f# 1a 1cc
=79	=79	=79	=79	=79	=79
1i	A:min	197.849	.	voice	1A 1cc 1ee
=80	=80	=80	=80	=80	=80
1i	A:min	200.35	.	voice	1A 1cc 1ee
=81	=81	=81	=81	=81	=81
1V7	E:7	202.85	newline	voice	1E 1g# 1b 1dd
=82	=82	=82	=82	=82	=82
1IV7	D:7	205.366	.	voice	1D 1f# 1a 1cc
=83	=83	=83	=83	=83	=83
1i	A:min	207.883	.	voice	1A 1cc 1ee
=84	=84	=84	=84	=84	=84
1i	A:min	210.399	.	voice	1A 1cc 1ee
=85	=85	=85	=85	=85	=85
*>B_verse	*>B_verse	*>B_verse	*>B_verse	*>B_verse	*>B_verse
1i	A:min	212.915	newline	voice	1A 1cc 1ee
=86	=86	=86	=86	=86	=86
1i	A:min	215.413	.	voice	1A 1cc 1ee
=87	=87	=87	=87	=87	=87
1i	A:min	217.911	.	voice	1A 1cc 1ee
=88	=88	=88	=88	=88	=88
1i	A:min	220.409	.	voice	1A 1cc 1ee
=89	=89	=89	=89	=89	=89
1i	A:min	222.907	newline	voice	1A 1cc 1ee
=90	=90	=90	=90	=90	=90
1i	A:min	225.437	.	voice	1A 1cc 1ee
=91	=91	=91	=91	=91	=91
1i	A:min	227.967	.	voice	1A 1cc 1ee
=92	=92	=92	=92	=92	=92
1i	A:min	230.498	.	voice	1A 1cc 1ee
=93	=93	=93	=93	=93	=93
1IV7	D:7	233.028	newline	voice	1D 1f# 1a 1cc
=94	=94	=94	=94	=94	=94
1IV7	D:7	235.556	.	voice	1D 1f# 1a 1cc
=95	=95	=95	=95	=95	=95
1i	A:min	238.084	.	voice	1A 1cc 1ee
=96	=96	=96	=96	=96	=96
1i	A:min	240.611	.	voice	1A 1cc 1ee
=97	=97	=97	=97	=97	=97
1V7	E:7	243.139	newline	voice	1E 1g# 1b 1dd
=98	=98	=98	=98	=98	=98
1IV7	D:7	245.649	.	voice	1D 1f# 1a 1cc
=99	=99	=99	=99	=99	=99
1i	A:min	248.159	.	voice	1A 1cc 1ee
=100	=100	=100	=100	=100	=100
1i	A:min	250.668	.	voice	1A 1cc 1ee
=101	=101	=101	=101	=101	=101
*>B_verse	*>B_verse	*>B_verse	*>B_verse	*>B_verse	*>B_verse
1i	A:min	253.178	newline	voice	1A 1cc 1ee
=102	=102	=102	=102	=102	=102
1i	A:min	255.681	.	voice	1A 1cc 1ee
=103	=103	=103	=103	=103	=103
1i	A:min	258.185	.	voice	1A 1cc 1ee
=104	=104	=104	=104	=104	=104
1i	A:min	260.688	.	voice	1A 1cc 1ee
=105	=105	=105	=105	=105	=105
1i	A:min	263.191	newline	voice	1A 1cc 1ee
=106	=106	=106	=106	=106	=106
1i	A:min	265.719	.	voice	1A 1cc 1ee
=107	=107	=107	=107	=107	=107
1i	A:min	268.246	.	voice	1A 1cc 1ee
=108	=108	=108	=108	=108	=108
1i	A:min	270.774	.	voice	1A 1cc 1ee
=109	=109	=109	=109	=109	=109
1IV7	D:7	273.302	newline	voice	1D 1f# 1a 1cc
=110	=110	=110	=110	=110	=110
1IV7	D:7	275.791	.	voice	1D 1f# 1a 1cc
=111	=111	=111	=111	=111	=111
1i	A:min	278.28	.	voice	1A 1cc 1ee
=112	=112	=112	=112	=112	=112
1i	A:min	280.769	.	voice	1A 1cc 1ee
=113	=113	=113	=113	=113	=113
1V7	E:7	283.258	newline	voice	1E 1g# 1b 1dd
=114	=114	=114	=114	=114	=114
1IV7	D:7	285.771	.	voice	1D 1f# 1a 1cc
=115	=115	=115	=115	=115	=115
1i	A:min	288.284	.	voice	1A 1cc 1ee
=116	=116	=116	=116	=116	=116
1i	A:min	290.797	.	voice	1A 1cc 1ee
=117	=117	=117	=117	=117	=117
*>A_coda	*>A_coda	*>A_coda	*>A_coda	*>A_coda	*>A_coda
1i	A:min	293.31	newline	voice	1A 1cc 1ee
=118	=118	=118	=118	=118	=118
1i	A:min	295.804	.	voice	1A 1cc 1ee
=119	=119	=119	=119	=119	=119
1i	A:min	298.297	.	voice	1A 1cc 1ee
=120	=120	=120	=120	=120	=120
1i	A:min	300.79	.	voice	1A 1cc 1ee
=121	=121	=121	=121	=121	=121
*>_fadeout	*>_fadeout	*>_fadeout	*>_fadeout	*>_fadeout	*>_fadeout
1i	A:min	303.284	newline	voice	1A 1cc 1ee
=122	=122	=122	=122	=122	=122
1i	A:min	305.802	.	voice	1A 1cc 1ee
=123	=123	=123	=123	=123	=123
1i	A:min	308.319	.	voice	1A 1cc 1ee
=124	=124	=124	=124	=124	=124
1i	A:min	310.837	.	voice	1A 1cc 1ee
=125	=125	=125	=125	=125	=125
1i	A:min	313.355	newline	voice	1A 1cc 1ee
=126	=126	=126	=126	=126	=126
1i	A:min	316.071	.	voice	1A 1cc 1ee
=127	=127	=127	=127	=127	=127
1i	A:min	318.787	.	voice	1A 1cc 1ee
1r;	N	321.503	.	r	1r;
1r;	N	325.747	.	r	1r;
*-	*-	*-	*-	*-	*-
!!!OTL: Gotta Serve Somebody
!!!COC: Bob Dylan
!!!BillboardChartDate: 1979/10/06
!!!BillboardPeak: 24
!!!BillboardWeeksOnChart: 12
!!!SampleTargetRank: 41
!!!SampleActualRank: 39
!!!SampleID#: 0282
!!!RDF**harmony: **recip + pitch class of root + harmonic quality
!!!RDF**harte: Chris Harte's syntax, used by MIREX
!!!RDF**phrase: newline = linebreak in original McGill transcription
!!!RDF**timestamp: McGill audio timestamp in seconds
!!!RDF**leadinstrument: original McGill primary instrumentation annotation
!!!RDT: 2017/01/12/
!!!ENC: Nathaniel Condit-Schultz
!!!EST: Awating manual error checking and editing.
